X:1
T:Sir Eglamore
M:6/4
L:1/4
K:G
 G| G2 G E- F G| A2 F D3| B3 c3| d3/2 d/2 B G G G| G G G E F G| A2 F D3|\
 B3 c3| d3/2 d/2 B G G G| B2 c d2 B| e2 d c2 B| A2 G F2 E| A2 G F2- E|\
 D3 G3| F3 E3/2- D/2 E| D3 G3/2 A/2 F| G G2- G2||

